X: 13542
T: Flowery Fields Of Scotland, The
R: reel
M: 4/4
K: Dmajor
|DEFA defg-|ga/g/fd eBdB|ADFA d/e/def|dBAF EAFE|
DEFA d2d/e/f|gefd eBdB|ADFA d/e/def|dBAF EAFE||
Dfaf defa|gefd edBA|f2af dfaf|gefd eAde|
f/e/dfa dfaf|g/a/gfd eBdB|ADFA d/e/def|dBAF EAFE|

